assets/icons/qvision/no_meeting_room.svg

<svg xmlns="http://www.w3.org/2000/svg" height="24" viewBox="0 0 24 24" width="24"><path d="M11 11h-1v2h2v-1l9.73 9.73L20.46 23 14 16.54V21H3v-2h2V7.54l-4-4 1.27-1.27L11 11zm3 .49L5.51 3H14v1h5v12.49l-2-2V6h-3v5.49z"/></svg>

<svg width="24" height="24" viewBox="0 0 24 24" fill="none" xmlns="http://www.w3.org/2000/svg">
<path d="M11 11H10V13H12V12L21.73 21.73L20.46 23L14 16.54V21H3V19H5V7.54L1 3.54L2.27 2.27L11 11ZM14 11.49L5.51 3H14V4H19V16.49L17 14.49V6H14V11.49Z" fill="#323232"/>
</svg>
